X:6671
T:the Crookit Bawbee
O:england
D:Billy Pigg
R:Jig
M:6/8
A:Northumbria
K:G
B/2A/2|G>Bd gfe|d<Ac cBd c>eg|B>cA G2G|\
B>AG GAB|c>de d<Bd|
g>Bd c<GA|B>cAG2G|\
B>AB c>Bc|f2e/2d/2 d<BG|
G>AG GFG|B>AG A2A|\
B>AB c>Bc|f2e/2d/2 dAF G2|]
